X:952
T:Reel 952
M: 4/4
L:1/8
K: D Major
dAFAD2FA|AGFAd2cd|eAAAg2fe|dAfAd2e2|DFFADGFA|DFAdcAGF|EFGABdec|d2(3DDDD2fg|abafdfaf|eaafgece|afdfafda|gfefg2fe|afafbfaf|bgegfedc|BABcdfeg|f2d2d4:|.abc